icons/svg/icons8/apartament.svg

<?xml version="1.0" encoding="utf-8"?>
<!-- Generator: Adobe Illustrator 15.0.0, SVG Export Plug-In . SVG Version: 6.00 Build 0)  -->
<!DOCTYPE svg PUBLIC "-//W3C//DTD SVG 1.1//EN" "http://www.w3.org/Graphics/SVG/1.1/DTD/svg11.dtd">
<svg version="1.1" id="Layer_1" xmlns="http://www.w3.org/2000/svg" xmlns:xlink="http://www.w3.org/1999/xlink" x="0px" y="0px"
	 width="26px" height="26px" viewBox="0 0 26 26" enable-background="new 0 0 26 26" xml:space="preserve">
<rect fill="none" width="26" height="26"/>
<path fill="#333333" stroke="#333333" stroke-width="2" stroke-linecap="round" stroke-linejoin="round" stroke-miterlimit="10" d="
	M18.5,1L13,5v20h11V5L18.5,1z M18,9h-4V5h4V9z M23,9h-4V5h4V9z M18,14h-4v-4h4V14z M23,14h-4v-4h4V14z M18,19h-4v-4h4V19z M23,19h-4
	v-4h4V19z M18,24h-4v-4h4V24z M23,24h-4v-4h4V24z"/>
<path fill="#333333" stroke="#333333" stroke-width="2" stroke-linecap="round" stroke-linejoin="round" stroke-miterlimit="10" d="
	M7.5,1L2,5v20h11V5L7.5,1z M7,9H3V5h4V9z M12,9H8V5h4V9z M7,14H3v-4h4V14z M12,14H8v-4h4V14z M7,19H3v-4h4V19z M12,19H8v-4h4V19z
	 M7,24H3v-4h4V24z M12,24H8v-4h4V24z"/>
</svg>

<svg width="26" height="26" viewBox="0 0 26 26" fill="none" xmlns="http://www.w3.org/2000/svg">
<path d="M18.5 1L13 5V25H24V5L18.5 1ZM18 9H14V5H18V9ZM23 9H19V5H23V9ZM18 14H14V10H18V14ZM23 14H19V10H23V14ZM18 19H14V15H18V19ZM23 19H19V15H23V19ZM18 24H14V20H18V24ZM23 24H19V20H23V24Z" fill="#333333" stroke="#333333" stroke-width="2" stroke-miterlimit="10" stroke-linecap="round" stroke-linejoin="round"/>
<path d="M7.5 1L2 5V25H13V5L7.5 1ZM7 9H3V5H7V9ZM12 9H8V5H12V9ZM7 14H3V10H7V14ZM12 14H8V10H12V14ZM7 19H3V15H7V19ZM12 19H8V15H12V19ZM7 24H3V20H7V24ZM12 24H8V20H12V24Z" fill="#333333" stroke="#333333" stroke-width="2" stroke-miterlimit="10" stroke-linecap="round" stroke-linejoin="round"/>
</svg>
